X:1
T:Title
%%score { 1 | 2 }
L:1/8
Q:1/4=100
M:2/4
K:F
V:1 treble nm="Grand Piano"
V:2 bass 
V:1
 A2 F>G | A3 c | dc AF | [FA]2 [EG]2 | [GB]2 [Ec]>[Ed] | [Fc]3 [CFA] | [=B,FA][B,FG] [B,DG][B,FA] | %7
w: Robert~Lowry * *|||||||
 [CEG]4 | [CFA]2 [B,EG]>[A,F] | [DFB]3 [DFB] | [EB][EG] [Ec][GB] | [GB]2 A2 | d2 [Be]>[Be] | %13
w: ||||||
 [Af][Fc] [Fd][DFB] | [CFA]2 [B,EG]2 | [A,F]4 |] %16
w: |||
V:2
 [F,CF]2 [F,A,C]>[F,B,C] | [F,CF]3 [F,A,F] | [F,B,F][F,A,F] [F,CF][F,A,C] | [C,C]2 [C,C]2 | %4
 [E,C]2 [C,C]>[C,B,] | [F,A,]3 F, | D,D, D,G,, | C,4 | F,2 C,>D, | B,,3 B,, | %10
 [C,C][C,C] [C,G,][C,C] | [F,C]2[K:treble] [F,CF]2 | [B,F]2[K:bass] [G,C]>[G,C] | %13
 [F,C][F,A,] [B,,B,]B,, | C,2 C,2 | F,4 |] %16

